**kern	**silbe	**kern	**silbe	**harmony	**phrase	**leadinstrument	**rhyme	**timestamp	**harte
*ICvox	*	*ICvox	*	*M4/4	*	*	*	*	*M4/4
*VRlead	*	*VRresponse	*	*	*	*	*	*	*
*Hstimme	*	*Nstimme	*	*	*	*	*	*	*
*g:	*	*g:	*	*g:	*g:	*g:	*	*g:	*g:
*M4/4	*	*M4/4	*	*	*	*	*	*	*
*clefF4	*	*clefF4	*	*	*	*	*	*	*
r;	.	r;	.	1r;	.	r	.	0	N.C.
=1	=1	=1	=1	=1	=1	=1	=1	=1	=1
*>Letter>A	*>Letter>A	*>Letter>A	*>Letter>A	*>Letter>A	*>Letter>A	*>Letter>A	*>Letter>A	*>Letter>A	*>Letter>A
*>Label>Intro	*>Label>Intro	*>Label>Intro	*>Label>Intro	*>Label>Intro	*>Label>Intro	*>Label>Intro	*>Label>Intro	*>Label>Intro	*>Label>Intro
*	*	*	*	*M2/4	*M2/4	*M2/4	*	*M2/4	*M2/4
2r	.	2r	.	8FM	newline	strings	.	0.441	F:maj
.	.	.	.	4E-M	.	strings	.	1.044	E-:maj
.	.	.	.	8DM	.	strings	.	.	D:maj(9)
=2	=2	=2	=2	=2	=2	=2	=2	=2	=2
*M4/4	*	*M4/4	*	*M4/4	*M4/4	*M4/4	*	*M4/4	*M4/4
1r	.	1r	.	1DM	.	strings	.	1.646	D:maj(9)
=3	=3	=3	=3	=3	=3	=3	=3	=3	=3
*M2/4	*	*M2/4	*	*M2/4	*M2/4	*M2/4	*	*M2/4	*M2/4
2r	.	2r	.	8E-M	.	strings	.	4.055	E-:maj
.	.	.	.	4DM	.	strings	.	4.658	D:maj
.	.	.	.	8Cmm	.	strings	.	.	C:min7
=4	=4	=4	=4	=4	=4	=4	=4	=4	=4
*M4/4	*	*M4/4	*	*M4/4	*M4/4	*M4/4	*	*M4/4	*M4/4
1r	.	1r	.	1Cmm	.	strings	.	5.26	C:min7
=5	=5	=5	=5	=5	=5	=5	=5	=5	=5
*M2/4	*	*M2/4	*	*M2/4	*M2/4	*M2/4	*	*M2/4	*M2/4
2r	.	2r	.	8Cmm	.	strings	.	7.669	C:min7
.	.	.	.	4B-M	.	strings	.	8.272	B-:maj/3
.	.	.	.	8E-M	.	strings	.	.	E-:maj
=6	=6	=6	=6	=6	=6	=6	=6	=6	=6
*M4/4	*	*M4/4	*	*M4/4	*M4/4	*M4/4	*	*M4/4	*M4/4
1r	.	1r	.	1E-M	newline	strings	.	8.874	E-:maj
=7	=7	=7	=7	=7	=7	=7	=7	=7	=7
1r	.	1r	.	1FM	.	strings	.	11.232	F:maj
=8	=8	=8	=8	=8	=8	=8	=8	=8	=8
1r	.	1r	.	1Gmm	newline	guitar	.	13.59	G:min7
=9	=9	=9	=9	=9	=9	=9	=9	=9	=9
1r	.	1r	.	1Gmm	.	guitar	.	15.976	G:min7
=10	=10	=10	=10	=10	=10	=10	=10	=10	=10
1r	.	1r	.	1Gmm	.	guitar	.	18.362	G:min7
=11	=11	=11	=11	=11	=11	=11	=11	=11	=11
1r	.	1r	.	1Gmm	.	guitar	.	20.749	G:min7
=12	=12	=12	=12	=12	=12	=12	=12	=12	=12
*>Letter>B	*>Letter>B	*>Letter>B	*>Letter>B	*>Letter>B	*>Letter>B	*>Letter>B	*>Letter>B	*>Letter>B	*>Letter>B
*>Label>Verse	*>Label>Verse	*>Label>Verse	*>Label>Verse	*>Label>Verse	*>Label>Verse	*>Label>Verse	*>Label>Verse	*>Label>Verse	*>Label>Verse
8r	.	1r	.	1Gmm	newline	voice	.	23.135	G:min7
8B-	You	.	.	.	.	.	.	.	.
8B-	got	.	.	.	.	.	.	.	.
16B-	me	.	.	.	.	.	.	.	.
16B-	loo-	.	.	.	.	.	.	.	.
8r	.	.	.	.	.	.	.	.	.
8B-	-kin'	.	.	.	.	.	.	.	.
8B-	at	.	.	.	.	.	.	.	.
8B-	that	.	.	.	.	.	.	.	.
=13	=13	=13	=13	=13	=13	=13	=13	=13	=13
8c	hea-	1r	.	1FM	.	voice	(A	25.497	F:maj
16c	-ven	.	.	.	.	.	a)	.	.
[16c	in	.	.	.	.	.	.	.	.
16c]	_	.	.	.	.	.	.	.	.
8c	your	.	.	.	.	.	.	.	.
16G	eyes	.	.	.	.	.	B	.	.
8F	_	.	.	.	.	.	.	.	.
8r	.	.	.	.	.	.	.	.	.
16r	.	.	.	.	.	.	.	.	.
16G	I	.	.	.	.	.	.	.	.
8A	was	.	.	.	.	.	.	.	.
=14	=14	=14	=14	=14	=14	=14	=14	=14	=14
8B-	cha-	1r	.	1E-MM	.	voice	.	27.858	E-:maj7
16B-	-sin'	.	.	.	.	.	.	.	.
[16B-	your	.	.	.	.	.	.	.	.
16B-]	_	.	.	.	.	.	.	.	.
8B-	di-	.	.	.	.	.	.	.	.
[16B-	-rec	.	.	.	.	.	(A	.	.
8B-]	_	.	.	.	.	.	.	.	.
8G	tion,	.	.	.	.	.	a)	.	.
16r	.	.	.	.	.	.	.	.	.
16G	I	.	.	.	.	.	.	.	.
8B-	was	.	.	.	.	.	.	.	.
=15	=15	=15	=15	=15	=15	=15	=15	=15	=15
8A	te-	1r	.	1DMm	.	voice	.	30.22	D:7
16A	-llin'	.	.	.	.	.	.	.	.
[16A	you	.	.	.	.	.	.	.	.
16A]	_	.	.	.	.	.	.	.	.
8A	no	.	.	.	.	.	.	.	.
[16A	lies,	.	.	.	.	.	B	.	.
16A]	_	.	.	.	.	.	.	.	.
16A	and	.	.	.	.	.	.	.	.
[8B-	I	.	.	.	.	.	B	.	.
8B-]	_	.	.	.	.	.	.	.	.
8A	was	.	.	.	.	.	.	.	.
=16	=16	=16	=16	=16	=16	=16	=16	=16	=16
16A	lo-	1r	.	1E-MM	newline	voice	.	32.582	E-:maj7
8G	-vin'	.	.	.	.	.	.	.	.
[16G	you,	.	.	.	.	.	.	.	.
8G]	_	.	.	.	.	.	.	.	.
8r	.	.	.	.	.	.	.	.	.
8B-	when	.	.	.	.	.	.	.	.
16B-	the	.	.	.	.	.	.	.	.
[16c	words	.	.	.	.	.	.	.	.
8.c]	_	.	.	.	.	.	.	.	.
[16B-	are	.	.	.	.	.	.	.	.
=17	=17	=17	=17	=17	=17	=17	=17	=17	=17
16B-]	_	1r	.	1FM	.	voice	.	34.957	F:maj
16G	said,	.	.	.	.	.	A	.	.
16F	_	.	.	.	.	.	.	.	.
16r	.	.	.	.	.	.	.	.	.
4r	.	.	.	.	.	.	.	.	.
8.r	.	.	.	.	.	.	.	.	.
[16G	ba	.	.	.	.	.	.	.	.
16G]	_	.	.	.	.	.	.	.	.
16G	by,	.	.	.	.	.	.	.	.
8G	I	.	.	.	.	.	.	.	.
=18	=18	=18	=18	=18	=18	=18	=18	=18	=18
8G	lose	1r	.	1Gmm	.	voice	.	37.331	G:min7
8B-	my	.	.	.	.	.	.	.	.
4G	head.	.	.	.	.	.	A	.	.
2r	.	.	.	.	.	.	.	.	.
=19	=19	=19	=19	=19	=19	=19	=19	=19	=19
2r	.	1r	.	1Gmm	.	voice	.	39.706	G:min7
8r	.	.	.	.	.	.	.	.	.
8d	And	.	.	.	.	.	.	.	.
8d	in	.	.	.	.	.	.	.	.
8d	a	.	.	.	.	.	.	.	.
=20	=20	=20	=20	=20	=20	=20	=20	=20	=20
*>Letter>C	*>Letter>C	*>Letter>C	*>Letter>C	*>Letter>C	*>Letter>C	*>Letter>C	*>Letter>C	*>Letter>C	*>Letter>C
*>Label>Prechorus	*>Label>Prechorus	*>Label>Prechorus	*>Label>Prechorus	*>Label>Prechorus	*>Label>Prechorus	*>Label>Prechorus	*>Label>Prechorus	*>Label>Prechorus	*>Label>Prechorus
8r	.	1r	.	2Cmm	newline	voice	.	42.081	C:min7
8e-	world	.	.	.	.	.	.	.	.
8d	of	.	.	.	.	.	.	.	.
8cq	_	.	.	.	.	.	.	.	.
8d	peo	.	.	.	.	.	C	.	.
8c	_	.	.	2FMm	.	voice	.	43.282	F:7
8c	ple,	.	.	.	.	.	.	.	.
16r	.	.	.	.	.	.	.	.	.
8.B-	there's	.	.	.	.	.	.	.	.
=21	=21	=21	=21	=21	=21	=21	=21	=21	=21
*	*	*clefG2	*	*	*	*	*	*	*
8d	on-	1r	.	2B-MM	.	voice	.	44.484	B-:maj7
16c	-ly	.	.	.	.	.	.	.	.
[16c	you	.	.	.	.	.	.	.	.
16c]	_	.	.	.	.	.	.	.	.
8B-	and	.	.	.	.	.	.	.	.
[16B-	I	.	.	.	.	.	B	.	.
8B-]	_	.	.	2Gmm	.	voice	.	45.685	G:min7
8r	.	.	.	.	.	.	.	.	.
16r	.	.	.	.	.	.	.	.	.
16d	There	.	.	.	.	.	.	.	.
8d	ain't	.	.	.	.	.	.	.	.
=22	=22	=22	=22	=22	=22	=22	=22	=22	=22
16e-	no-	1r	.	2Cmm	.	voice	.	46.886	C:min7
8e-	-thin'	.	.	.	.	.	.	.	.
[16e-	come	.	.	.	.	.	.	.	.
8e-]	_	.	.	.	.	.	.	.	.
16d	be-	.	.	.	.	.	.	.	.
[16d	-tween	.	.	.	.	.	C	.	.
16d]	_	.	.	2DMm	.	voice	.	48.087	D:7
8c	us	.	.	.	.	.	.	.	.
[16c	in	.	.	.	.	.	.	.	.
8c]	_	.	.	.	.	.	.	.	.
16B-	the	.	.	.	.	.	.	.	.
[16c	end	.	.	.	.	.	.	.	.
=23	=23	=23	=23	=23	=23	=23	=23	=23	=23
16c]	_	2r	.	1Gm	.	voice	.	49.288	G:min
8.B-	_	.	.	.	.	.	.	.	.
4r	.	.	.	.	.	.	.	.	.
2r	.	8r	.	.	.	.	.	.	.
.	.	[4.g [4.b- [4.dd	How	.	.	.	.	.	.
=24	=24	=24	=24	=24	=24	=24	=24	=24	=24
1r	.	4g] 4b-] 4dd]	_	2Cmm	newline	voice	.	51.691	C:min7
.	.	16g 16b- 16dd	can	.	.	.	.	.	.
.	.	8g 8b- 8dd	I	.	.	.	.	.	.
.	.	16g 16b- 16dd	hold	.	.	.	.	.	.
.	.	8f 8a 8cc	_	2FMm	.	voice	.	52.873	F:7
.	.	8f 8a 8cc	you	.	.	.	.	.	.
.	.	8f 8a 8cc	when	.	.	.	.	.	.
.	.	8e- 8g 8b-	you	.	.	.	.	.	.
=25	=25	=25	=25	=25	=25	=25	=25	=25	=25
1r	.	8e- 8g 8b-	ain't	2B-MM	.	voice	.	54.055	B-:maj7
.	.	8d 8f 8a	e-	.	.	.	.	.	.
.	.	8d 8f 8a	-ven	.	.	.	.	.	.
.	.	[8d [8g [8b-	mine?	.	.	.	B	.	.
.	.	16d] 16g] 16b-]	_	2Gmm	.	voice	.	55.237	G:min7
.	.	16c 16f 16a	_	.	.	.	.	.	.
.	.	8B- 8d 8g	_	.	.	.	.	.	.
.	.	4r	.	.	.	.	.	.	.
=26	=26	=26	=26	=26	=26	=26	=26	=26	=26
8r	.	1r	.	1Cmm	.	voice	.	56.419	C:min7
16c	On-	.	.	.	.	.	.	.	.
16c	-ly	.	.	.	.	.	.	.	.
16c	you	.	.	.	.	.	.	.	.
8.c	can	.	.	.	.	.	.	.	.
8d	see	.	.	.	.	.	.	.	.
16c	me	.	.	.	.	.	.	.	.
16c	through,	.	.	.	.	.	D	.	.
4r	.	.	.	.	.	.	.	.	.
=27	=27	=27	=27	=27	=27	=27	=27	=27	=27
8r	.	1r	.	1DMm	.	voice	.	58.782	D:7
8d	I	.	.	.	.	.	.	.	.
8d	leave	.	.	.	.	.	.	.	.
16d	it	.	.	.	.	.	.	.	.
16d	all	.	.	.	.	.	.	.	.
8c	_	.	.	.	.	.	.	.	.
16B-	to	.	.	.	.	.	.	.	.
[16c	you!	.	.	.	.	.	D	.	.
16c]	_	.	.	.	.	.	.	.	.
16B-	_	.	.	.	.	.	.	.	.
16G	_	.	.	.	.	.	.	.	.
16r	.	.	.	.	.	.	.	.	.
=28	=28	=28	=28	=28	=28	=28	=28	=28	=28
*>Letter>D	*>Letter>D	*>Letter>D	*>Letter>D	*>Letter>D	*>Letter>D	*>Letter>D	*>Letter>D	*>Letter>D	*>Letter>D
*>Label>Chorus	*>Label>Chorus	*>Label>Chorus	*>Label>Chorus	*>Label>Chorus	*>Label>Chorus	*>Label>Chorus	*>Label>Chorus	*>Label>Chorus	*>Label>Chorus
8F	Do	1r	.	1Gmm	newline	voice	.	61.146	G:min7
8G	it	.	.	.	.	.	.	.	.
8B-q	_	.	.	.	.	.	.	.	.
8c	light,	.	.	.	.	.	B	.	.
8r	.	.	.	.	.	.	.	.	.
8r	.	.	.	.	.	.	.	.	.
[8B-	ta	.	.	.	.	.	(G	.	.
16B-]	_	.	.	.	.	.	.	.	.
16G	kin'	.	.	.	.	.	a)	.	.
8F	me	.	.	.	.	.	.	.	.
=29	=29	=29	=29	=29	=29	=29	=29	=29	=29
8D	through	1r	.	1Gmm	.	voice	.	63.514	G:min7
8G	the	.	.	.	.	.	.	.	.
8G	night.	.	.	.	.	.	B	.	.
8r	.	.	.	.	.	.	.	.	.
8r	.	.	.	.	.	.	.	.	.
8F	Sha-	.	.	.	.	.	.	.	.
8G	-dow	.	.	.	.	.	.	.	.
8B-	dan-	.	.	.	.	.	.	.	.
=30	=30	=30	=30	=30	=30	=30	=30	=30	=30
8Fq	_	.	.	.	.	.	.	.	.
8.G	-cing,	1r	.	1Gmm	.	voice	a	65.881	G:min7
16F	_	.	.	.	.	.	.	.	.
16D	_	.	.	.	.	.	.	.	.
16C	_	.	.	.	.	.	.	.	.
8BB-	_	.	.	.	.	.	.	.	.
8r	.	.	.	.	.	.	.	.	.
[8F	ba	.	.	.	.	.	G	.	.
16F]	_	.	.	.	.	.	.	.	.
16D	by,	.	.	.	.	.	.	.	.
8C	you	.	.	.	.	.	.	.	.
=31	=31	=31	=31	=31	=31	=31	=31	=31	=31
8BB-	do	1r	.	1Gmm	.	voice	.	68.248	G:min7
16C	it	.	.	.	.	.	.	.	.
16BB-	_	.	.	.	.	.	.	.	.
8D	right,	.	.	.	.	.	B	.	.
16C	_	.	.	.	.	.	.	.	.
16BB-	_	.	.	.	.	.	.	.	.
8r	.	.	.	.	.	.	.	.	.
8c	uh-	.	.	.	.	.	.	.	.
16c	-huh!	.	.	.	.	.	.	.	.
16B-	_	.	.	.	.	.	.	.	.
8G	_	.	.	.	.	.	.	.	.
=32	=32	=32	=32	=32	=32	=32	=32	=32	=32
8F	Give	1r	.	1Gmm	newline	voice	.	70.616	G:min7
8G	me	.	.	.	.	.	.	.	.
8B-q	_	.	.	.	.	.	.	.	.
4c	more!	.	.	.	.	.	E	.	.
8r	.	.	.	.	.	.	.	.	.
16d-Q	_	.	.	.	.	.	.	.	.
16cQ	_	.	.	.	.	.	.	.	.
[8B-	Drag	.	.	.	.	.	.	.	.
16B-]	_	.	.	.	.	.	.	.	.
16G	me	.	.	.	.	.	.	.	.
8F	a-	.	.	.	.	.	.	.	.
=33	=33	=33	=33	=33	=33	=33	=33	=33	=33
8D	-cross	1r	.	1Gmm	.	voice	.	72.921	G:min7
8G	the	.	.	.	.	.	.	.	.
8G	floor!	.	.	.	.	.	E	.	.
8r	.	.	.	.	.	.	.	.	.
8r	.	.	.	.	.	.	.	.	.
8F	Sha-	.	.	.	.	.	.	.	.
8G	-dow	.	.	.	.	.	.	.	.
8B-	dan-	.	.	.	.	.	.	.	.
=34	=34	=34	=34	=34	=34	=34	=34	=34	=34
8Fq	_	.	.	.	.	.	.	.	.
8.G	-cing,	1r	.	1Gmm	.	voice	a	75.227	G:min7
16F	_	.	.	.	.	.	.	.	.
16D	_	.	.	.	.	.	.	.	.
16C	_	.	.	.	.	.	.	.	.
8BB-	_	.	.	.	.	.	.	.	.
8r	.	.	.	.	.	.	.	.	.
[8F	all	.	.	.	.	.	.	.	.
16F]	_	.	.	.	.	.	.	.	.
16D	this	.	.	.	.	.	.	.	.
8C	and	.	.	.	.	.	.	.	.
=35	=35	=35	=35	=35	=35	=35	=35	=35	=35
*M2/4	*	*M2/4	*	*M2/4	*M2/4	*M2/4	*	*M2/4	*M2/4
8BB-	no-	2r	.	2Gmm	.	voice	.	77.532	G:min7
16C	-thin'	.	.	.	.	.	a	.	.
16BB-	_	.	.	.	.	.	.	.	.
8D	more!	.	.	.	.	.	E	.	.
16C	_	.	.	.	.	.	.	.	.
16BB-	_	.	.	.	.	.	.	.	.
=36	=36	=36	=36	=36	=36	=36	=36	=36	=36
*>Letter>A	*>Letter>A	*>Letter>A	*>Letter>A	*>Letter>A	*>Letter>A	*>Letter>A	*>Letter>A	*>Letter>A	*>Letter>A
*>Label>Interlude	*>Label>Interlude	*>Label>Interlude	*>Label>Interlude	*>Label>Interlude	*>Label>Interlude	*>Label>Interlude	*>Label>Interlude	*>Label>Interlude	*>Label>Interlude
2r	.	2r	.	8FM	newline	strings	.	78.685	F:maj
.	.	.	.	4E-M	.	strings	.	79.292	E-:maj
.	.	.	.	8DM	.	strings	.	.	D:maj(9)
=37	=37	=37	=37	=37	=37	=37	=37	=37	=37
*M4/4	*	*M4/4	*	*M4/4	*M4/4	*M4/4	*	*M4/4	*M4/4
1r	.	1r	.	1DM	.	strings	.	79.9	D:maj(9)
=38	=38	=38	=38	=38	=38	=38	=38	=38	=38
*M2/4	*	*M2/4	*	*M2/4	*M2/4	*M2/4	*	*M2/4	*M2/4
2r	.	2r	.	8E-M	.	strings	.	82.331	E-:maj
.	.	.	.	4DM	.	strings	.	82.939	D:maj
.	.	.	.	8Cmm	.	strings	.	.	C:min7
=39	=39	=39	=39	=39	=39	=39	=39	=39	=39
*M4/4	*	*M4/4	*	*M4/4	*M4/4	*M4/4	*	*M4/4	*M4/4
1r	.	1r	.	1Cmm	.	strings	.	83.546	C:min7
=40	=40	=40	=40	=40	=40	=40	=40	=40	=40
*M2/4	*	*M2/4	*	*M2/4	*M2/4	*M2/4	*	*M2/4	*M2/4
2r	.	2r	.	8Cmm	.	strings	.	85.977	C:min7
.	.	.	.	4B-M	.	strings	.	86.585	B-:maj/3
.	.	.	.	8E-M	.	strings	.	.	E-:maj
=41	=41	=41	=41	=41	=41	=41	=41	=41	=41
*M4/4	*	*M4/4	*	*M4/4	*M4/4	*M4/4	*	*M4/4	*M4/4
1r	.	1r	.	1E-M	newline	strings	.	87.193	E-:maj
=42	=42	=42	=42	=42	=42	=42	=42	=42	=42
1r	.	1r	.	1FM	.	strings	.	89.569	F:maj
=43	=43	=43	=43	=43	=43	=43	=43	=43	=43
1r	.	1r	.	1Gmm	newline	guitar	.	91.945	G:min7
=44	=44	=44	=44	=44	=44	=44	=44	=44	=44
1r	.	1r	.	1Gmm	.	guitar	.	94.319	G:min7
=45	=45	=45	=45	=45	=45	=45	=45	=45	=45
1r	.	1r	.	1Gmm	.	guitar	.	96.692	G:min7
=46	=46	=46	=46	=46	=46	=46	=46	=46	=46
1r	.	1r	.	1Gmm	.	guitar	.	99.066	G:min7
=47	=47	=47	=47	=47	=47	=47	=47	=47	=47
*>Letter>B	*>Letter>B	*>Letter>B	*>Letter>B	*>Letter>B	*>Letter>B	*>Letter>B	*>Letter>B	*>Letter>B	*>Letter>B
*>Label>Verse	*>Label>Verse	*>Label>Verse	*>Label>Verse	*>Label>Verse	*>Label>Verse	*>Label>Verse	*>Label>Verse	*>Label>Verse	*>Label>Verse
8r	.	1r	.	1Gmm	newline	voice	.	101.44	G:min7
8B-	All	.	.	.	.	.	.	.	.
16B-	that	.	.	.	.	.	.	.	.
8B-	I	.	.	.	.	.	.	.	.
[16B-	need	.	.	.	.	.	.	.	.
8B-]	_	.	.	.	.	.	.	.	.
8B-	is	.	.	.	.	.	.	.	.
8B-	just	.	.	.	.	.	.	.	.
8B-	one	.	.	.	.	.	.	.	.
=48	=48	=48	=48	=48	=48	=48	=48	=48	=48
8c	mo-	1r	.	1FM	.	voice	.	103.794	F:maj
16c	-ment	.	.	.	.	.	.	.	.
[16c	in	.	.	.	.	.	.	.	.
16c]	_	.	.	.	.	.	.	.	.
8c	your	.	.	.	.	.	.	.	.
16G	arms	.	.	.	.	.	F	.	.
8F	_	.	.	.	.	.	.	.	.
8r	.	.	.	.	.	.	.	.	.
16r	.	.	.	.	.	.	.	.	.
16G	I	.	.	.	.	.	.	.	.
8A	was	.	.	.	.	.	.	.	.
=49	=49	=49	=49	=49	=49	=49	=49	=49	=49
8B-	cha-	1r	.	1E-MM	.	voice	.	106.148	E-:maj7
16B-	-sin'	.	.	.	.	.	.	.	.
[16B-	your	.	.	.	.	.	.	.	.
16B-]	_	.	.	.	.	.	.	.	.
8B-	af-	.	.	.	.	.	.	.	.
[16B-	-ffect-	.	.	.	.	.	.	.	.
8B-]	_	.	.	.	.	.	.	.	.
8B-	-tion,	.	.	.	.	.	.	.	.
16r	.	.	.	.	.	.	.	.	.
16G	I	.	.	.	.	.	B	.	.
8B-	was	.	.	.	.	.	.	.	.
=50	=50	=50	=50	=50	=50	=50	=50	=50	=50
8A	do-	1r	.	1DMm	.	voice	.	108.502	D:7
16A	-in'	.	.	.	.	.	.	.	.
[16A	you	.	.	.	.	.	.	.	.
16A]	_	.	.	.	.	.	.	.	.
8A	no	.	.	.	.	.	.	.	.
[16A	harm,	.	.	.	.	.	F	.	.
16A]	_	.	.	.	.	.	.	.	.
16A	and	.	.	.	.	.	.	.	.
[8B-	I	.	.	.	.	.	B	.	.
8B-]	_	.	.	.	.	.	.	.	.
8A	was	.	.	.	.	.	.	.	.
=51	=51	=51	=51	=51	=51	=51	=51	=51	=51
16A	lo-	1r	.	1E-MM	newline	voice	.	110.856	E-:maj7
8G	-vin'	.	.	.	.	.	.	.	.
[16G	you,	.	.	.	.	.	.	.	.
8G]	_	.	.	.	.	.	.	.	.
8r	.	.	.	.	.	.	.	.	.
12B-	make	.	.	.	.	.	.	.	.
12G	it	.	.	.	.	.	.	.	.
[12c	shine,	.	.	.	.	.	B	.	.
8c]	_	.	.	.	.	.	.	.	.
8c	make	.	.	.	.	.	.	.	.
=52	=52	=52	=52	=52	=52	=52	=52	=52	=52
8c	it	1r	.	1FM	.	voice	.	113.229	F:maj
16G	rain	.	.	.	.	.	G	.	.
[16F	_	.	.	.	.	.	.	.	.
8F]	_	.	.	.	.	.	.	.	.
8r	.	.	.	.	.	.	.	.	.
8.r	.	.	.	.	.	.	.	.	.
[16G	Ba	.	.	.	.	.	G	.	.
16G]	_	.	.	.	.	.	.	.	.
16G	by,	.	.	.	.	.	.	.	.
8G	I	.	.	.	.	.	.	.	.
=53	=53	=53	=53	=53	=53	=53	=53	=53	=53
8G	know	1r	.	1Gmm	.	voice	.	115.603	G:min7
8B-	my	.	.	.	.	.	.	.	.
4G	way.	.	.	.	.	.	G	.	.
2r	.	.	.	.	.	.	.	.	.
=54	=54	=54	=54	=54	=54	=54	=54	=54	=54
2r	.	1r	.	1Gmm	.	voice	.	117.976	G:min7
8r	.	.	.	.	.	.	.	.	.
8d	I	.	.	.	.	.	.	.	.
8d	need	.	.	.	.	.	.	.	.
8d	that	.	.	.	.	.	.	.	.
=55	=55	=55	=55	=55	=55	=55	=55	=55	=55
*>Letter>C	*>Letter>C	*>Letter>C	*>Letter>C	*>Letter>C	*>Letter>C	*>Letter>C	*>Letter>C	*>Letter>C	*>Letter>C
*>Label>Prechorus	*>Label>Prechorus	*>Label>Prechorus	*>Label>Prechorus	*>Label>Prechorus	*>Label>Prechorus	*>Label>Prechorus	*>Label>Prechorus	*>Label>Prechorus	*>Label>Prechorus
8r	.	1r	.	2Cmm	newline	voice	.	120.35	C:min7
8e-	sweet	.	.	.	.	.	.	.	.
8e-	sen-	.	.	.	.	.	.	.	.
[8f	-sa	.	.	.	.	.	G	.	.
8f]	_	.	.	2FMm	.	voice	.	121.544	F:7
8cq	_	.	.	.	.	.	.	.	.
8d	tion,	.	.	.	.	.	.	.	.
16r	.	.	.	.	.	.	.	.	.
8.c	of	.	.	.	.	.	.	.	.
=56	=56	=56	=56	=56	=56	=56	=56	=56	=56
8d	li-	1r	.	2B-MM	.	voice	.	122.739	B-:maj7
16c	-vin'	.	.	.	.	.	.	.	.
[16c	in	.	.	.	.	.	.	.	.
16c]	_	.	.	.	.	.	.	.	.
8B-	your	.	.	.	.	.	.	.	.
[16B-	love	.	.	.	.	.	.	.	.
8B-]	_	.	.	2Gmm	.	voice	.	123.933	G:min7
8r	.	.	.	.	.	.	.	.	.
16r	.	.	.	.	.	.	.	.	.
16d	I	.	.	.	.	.	.	.	.
8d	can't	.	.	.	.	.	.	.	.
=57	=57	=57	=57	=57	=57	=57	=57	=57	=57
16e-	breathe	1r	.	2Cmm	.	voice	.	125.128	C:min7
8d	when	.	.	.	.	.	.	.	.
[16d	you're	.	.	.	.	.	.	.	.
8d]	_	.	.	.	.	.	.	.	.
16c	a-	.	.	.	.	.	.	.	.
[16d	-way,	.	.	.	.	.	G	.	.
16d]	_	.	.	2DMm	.	voice	.	126.322	D:7
8c	it	.	.	.	.	.	.	.	.
[16d	pulls	.	.	.	.	.	.	.	.
8d]	_	.	.	.	.	.	.	.	.
16B-	me	.	.	.	.	.	.	.	.
[16c	down	.	.	.	.	.	.	.	.
=58	=58	=58	=58	=58	=58	=58	=58	=58	=58
16c]	_	2r	.	1Gm	.	voice	.	127.517	G:min
16B-	_	.	.	.	.	.	.	.	.
8G	_	.	.	.	.	.	.	.	.
4r	.	.	.	.	.	.	.	.	.
2r	.	8r	.	.	.	.	.	.	.
.	.	[4.g [4.b- [4.dd	Oh,	.	.	.	.	.	.
=59	=59	=59	=59	=59	=59	=59	=59	=59	=59
1r	.	4g] 4b-] 4dd]	_	2Cmm	newline	voice	.	129.906	C:min7
.	.	16g 16b- 16dd	you	.	.	.	.	.	.
.	.	8g 8b- 8dd	are	.	.	.	.	.	.
.	.	16g 16b- 16dd	the	.	.	.	.	.	.
.	.	8f 8a 8cc	ques-	.	.	.	.	.	.
.	.	8f 8a 8cc	-tion	2FMm	.	voice	.	131.097	F:7
.	.	8f 8a 8cc	and	.	.	.	.	.	.
.	.	8e- 8g 8b-	the	.	.	.	.	.	.
=60	=60	=60	=60	=60	=60	=60	=60	=60	=60
1r	.	8e- 8g 8b-	an-	2B-MM	.	voice	.	132.288	B-:maj7
.	.	8d 8f 8a	-swer	.	.	.	.	.	.
.	.	8d 8f 8a	am	.	.	.	.	.	.
.	.	[8d [8g [8b-	I!	.	.	.	B	.	.
.	.	16d] 16g] 16b-]	_	2Gmm	.	voice	.	133.478	G:min7
.	.	16c 16f 16a	_	.	.	.	.	.	.
.	.	8B- 8d 8g	_	.	.	.	.	.	.
.	.	4r	.	.	.	.	.	.	.
=61	=61	=61	=61	=61	=61	=61	=61	=61	=61
8r	.	1r	.	1Cmm	.	voice	.	134.669	C:min7
16c	On-	.	.	.	.	.	.	.	.
16c	-ly	.	.	.	.	.	.	.	.
16c	you	.	.	.	.	.	.	.	.
8.c	can	.	.	.	.	.	.	.	.
8d	see	.	.	.	.	.	.	.	.
16c	me	.	.	.	.	.	.	.	.
16c	through!	.	.	.	.	.	D	.	.
4r	.	.	.	.	.	.	.	.	.
=62	=62	=62	=62	=62	=62	=62	=62	=62	=62
8r	.	1r	.	1DMm	.	voice	.	137.051	D:7
8d	I	.	.	.	.	.	.	.	.
8d	leave	.	.	.	.	.	.	.	.
16d	it	.	.	.	.	.	.	.	.
16d	up	.	.	.	.	.	.	.	.
8c	_	.	.	.	.	.	.	.	.
16B-	to	.	.	.	.	.	.	.	.
[16c	you!	.	.	.	.	.	D	.	.
16c]	_	.	.	.	.	.	.	.	.
16B-	_	.	.	.	.	.	.	.	.
16G	_	.	.	.	.	.	.	.	.
16r	.	.	.	.	.	.	.	.	.
=63	=63	=63	=63	=63	=63	=63	=63	=63	=63
*>Letter>D	*>Letter>D	*>Letter>D	*>Letter>D	*>Letter>D	*>Letter>D	*>Letter>D	*>Letter>D	*>Letter>D	*>Letter>D
*>Label>Chorus	*>Label>Chorus	*>Label>Chorus	*>Label>Chorus	*>Label>Chorus	*>Label>Chorus	*>Label>Chorus	*>Label>Chorus	*>Label>Chorus	*>Label>Chorus
8F	Do	1r	.	1Gmm	newline	voice	.	139.433	G:min7
8G	it	.	.	.	.	.	.	.	.
8B-q	_	.	.	.	.	.	.	.	.
8c	light,	.	.	.	.	.	B	.	.
8r	.	.	.	.	.	.	.	.	.
8r	.	.	.	.	.	.	.	.	.
[8B-	ta	.	.	.	.	.	(G	.	.
16B-]	_	.	.	.	.	.	.	.	.
16G	kin'	.	.	.	.	.	a)	.	.
8F	me	.	.	.	.	.	.	.	.
=64	=64	=64	=64	=64	=64	=64	=64	=64	=64
8D	through	1r	.	1Gmm	.	voice	.	141.808	G:min7
8G	the	.	.	.	.	.	.	.	.
8G	night.	.	.	.	.	.	B	.	.
8r	.	.	.	.	.	.	.	.	.
8r	.	.	.	.	.	.	.	.	.
8F	Sha-	.	.	.	.	.	.	.	.
8G	-dow	.	.	.	.	.	.	.	.
8B-	dan-	.	.	.	.	.	.	.	.
=65	=65	=65	=65	=65	=65	=65	=65	=65	=65
8Fq	_	.	.	.	.	.	.	.	.
8.G	-cing,	1r	.	1Gmm	.	voice	a	144.184	G:min7
16F	_	.	.	.	.	.	.	.	.
16D	_	.	.	.	.	.	.	.	.
16C	_	.	.	.	.	.	.	.	.
8BB-	_	.	.	.	.	.	.	.	.
8r	.	.	.	.	.	.	.	.	.
[8F	ba	.	.	.	.	.	G	.	.
16F]	_	.	.	.	.	.	.	.	.
16D	by,	.	.	.	.	.	.	.	.
8C	you	.	.	.	.	.	.	.	.
=66	=66	=66	=66	=66	=66	=66	=66	=66	=66
8BB-	do	1r	.	1Gmm	.	voice	.	146.559	G:min7
16C	it	.	.	.	.	.	.	.	.
16BB-	_	.	.	.	.	.	.	.	.
8D	right,	.	.	.	.	.	B	.	.
16C	_	.	.	.	.	.	.	.	.
16BB-	_	.	.	.	.	.	.	.	.
8r	.	.	.	.	.	.	.	.	.
8c	uh-	.	.	.	.	.	.	.	.
16c	-huh!	.	.	.	.	.	.	.	.
16B-	_	.	.	.	.	.	.	.	.
8G	_	.	.	.	.	.	.	.	.
=67	=67	=67	=67	=67	=67	=67	=67	=67	=67
8F	Give	1r	.	1Gmm	newline	voice	.	148.934	G:min7
8G	me	.	.	.	.	.	.	.	.
8B-q	_	.	.	.	.	.	.	.	.
4c	more!	.	.	.	.	.	E	.	.
8r	.	.	.	.	.	.	.	.	.
16d-Q	_	.	.	.	.	.	.	.	.
16cQ	_	.	.	.	.	.	.	.	.
[8B-	Drag	.	.	.	.	.	.	.	.
16B-]	_	.	.	.	.	.	.	.	.
16G	me	.	.	.	.	.	.	.	.
8F	a-	.	.	.	.	.	.	.	.
=68	=68	=68	=68	=68	=68	=68	=68	=68	=68
8D	-cross	1r	.	1Gmm	.	voice	.	151.281	G:min7
8G	the	.	.	.	.	.	.	.	.
8G	floor!	.	.	.	.	.	E	.	.
8r	.	.	.	.	.	.	.	.	.
8r	.	.	.	.	.	.	.	.	.
8F	Sha-	.	.	.	.	.	.	.	.
8G	-dow	.	.	.	.	.	.	.	.
8B-	dan-	.	.	.	.	.	.	.	.
=69	=69	=69	=69	=69	=69	=69	=69	=69	=69
8Fq	_	.	.	.	.	.	.	.	.
8.G	-cing,	1r	.	1Gmm	.	voice	a	153.628	G:min7
16F	_	.	.	.	.	.	.	.	.
16D	_	.	.	.	.	.	.	.	.
16C	_	.	.	.	.	.	.	.	.
8BB-	_	.	.	.	.	.	.	.	.
8r	.	.	.	.	.	.	.	.	.
[8F	all	.	.	.	.	.	.	.	.
16F]	_	.	.	.	.	.	.	.	.
16D	this	.	.	.	.	.	.	.	.
8C	and	.	.	.	.	.	.	.	.
=70	=70	=70	=70	=70	=70	=70	=70	=70	=70
8BB-	no-	1r	.	1Gmm	.	voice	.	155.975	G:min7
16C	-thin'	.	.	.	.	.	a	.	.
16BB-	_	.	.	.	.	.	.	.	.
8D	more!	.	.	.	.	.	E	.	.
16C	_	.	.	.	.	.	.	.	.
16BB-	_	.	.	.	.	.	.	.	.
8r	.	.	.	.	.	.	.	.	.
8d	And	.	.	.	.	.	.	.	.
8d	in	.	.	.	.	.	.	.	.
8d	this	.	.	.	.	.	.	.	.
=71	=71	=71	=71	=71	=71	=71	=71	=71	=71
*>Letter>C	*>Letter>C	*>Letter>C	*>Letter>C	*>Letter>C	*>Letter>C	*>Letter>C	*>Letter>C	*>Letter>C	*>Letter>C
*>Label>Prechorus	*>Label>Prechorus	*>Label>Prechorus	*>Label>Prechorus	*>Label>Prechorus	*>Label>Prechorus	*>Label>Prechorus	*>Label>Prechorus	*>Label>Prechorus	*>Label>Prechorus
8r	.	1r	.	2Cmm	newline	voice	.	158.322	C:min7
8e-	world	.	.	.	.	.	.	.	.
8e-	of	.	.	.	.	.	.	.	.
8f	peo	.	.	.	.	.	C	.	.
8cq	_	.	.	.	.	.	.	.	.
8d	ple,	.	.	2FMm	.	voice	.	159.498	F:7
8r	.	.	.	.	.	.	.	.	.
16r	.	.	.	.	.	.	.	.	.
8f	there's	.	.	.	.	.	.	.	.
[16f	on	.	.	.	.	.	.	.	.
=72	=72	=72	=72	=72	=72	=72	=72	=72	=72
16f]	_	1r	.	2B-MM	.	voice	.	160.675	B-:maj7
8d	ly	.	.	.	.	.	.	.	.
[16d	you	.	.	.	.	.	.	.	.
16d]	_	.	.	.	.	.	.	.	.
8c	and	.	.	.	.	.	.	.	.
8dq	_	.	.	.	.	.	.	.	.
[16c	I!	.	.	.	.	.	B	.	.
16c]	_	.	.	2Gmm	.	voice	.	161.851	G:min7
8.B-	_	.	.	.	.	.	.	.	.
16r	.	.	.	.	.	.	.	.	.
16d	There	.	.	.	.	.	.	.	.
8d	ain't	.	.	.	.	.	.	.	.
=73	=73	=73	=73	=73	=73	=73	=73	=73	=73
16e-	no-	1r	.	2Cmm	.	voice	.	163.028	C:min7
8e-	-thin'	.	.	.	.	.	.	.	.
[16e-	come	.	.	.	.	.	.	.	.
16e-]	_	.	.	.	.	.	.	.	.
8d	be-	.	.	.	.	.	.	.	.
[16d	-tween	.	.	.	.	.	C	.	.
16d]	_	.	.	2DMm	.	voice	.	164.204	D:7
8c	us	.	.	.	.	.	.	.	.
8cq	_	.	.	.	.	.	.	.	.
[16d	in	.	.	.	.	.	.	.	.
8d]	_	.	.	.	.	.	.	.	.
16c	the	.	.	.	.	.	.	.	.
[16c	end!	.	.	.	.	.	.	.	.
=74	=74	=74	=74	=74	=74	=74	=74	=74	=74
16c]	_	4r	.	1Gm	.	voice	.	165.381	G:min
16B-	_	.	.	.	.	.	.	.	.
8G	_	.	.	.	.	.	.	.	.
4r	.	8r	.	.	.	.	.	.	.
.	.	[8g [8b- [8dd	How	.	.	.	.	.	.
2r	.	2g_ 2b-_ 2dd_	_	.	.	.	.	.	.
=75	=75	=75	=75	=75	=75	=75	=75	=75	=75
1r	.	4g] 4b-] 4dd]	_	2Cmm	newline	voice	.	167.734	C:min7
.	.	16g 16b- 16dd	can	.	.	.	.	.	.
.	.	8g 8b- 8dd	I	.	.	.	.	.	.
.	.	16g 16b- 16dd	hold	.	.	.	.	.	.
.	.	8f 8a 8cc	_	2FMm	.	voice	.	168.901	F:7
.	.	8f 8a 8cc	you	.	.	.	.	.	.
.	.	8f 8a 8cc	when	.	.	.	.	.	.
.	.	8e- 8g 8b-	you	.	.	.	.	.	.
=76	=76	=76	=76	=76	=76	=76	=76	=76	=76
1r	.	8e- 8g 8b-	ain't	2B-MM	.	voice	.	170.068	B-:maj7
.	.	8d 8f 8a	e-	.	.	.	.	.	.
.	.	8d 8f 8a	-ven	.	.	.	.	.	.
.	.	[8d [8g [8b-	mine?	.	.	.	B	.	.
.	.	16d] 16g] 16b-]	_	2Gmm	.	voice	.	171.236	G:min7
.	.	16c 16f 16a	_	.	.	.	.	.	.
.	.	8B- 8d 8g	_	.	.	.	.	.	.
.	.	4r	.	.	.	.	.	.	.
=77	=77	=77	=77	=77	=77	=77	=77	=77	=77
8r	.	1r	.	1Cmm	.	voice	.	172.403	C:min7
16c	On-	.	.	.	.	.	.	.	.
16c	-ly	.	.	.	.	.	.	.	.
16c	you	.	.	.	.	.	.	.	.
8.c	can	.	.	.	.	.	.	.	.
8d	see	.	.	.	.	.	.	.	.
16c	me	.	.	.	.	.	.	.	.
16c	through!	.	.	.	.	.	D	.	.
4r	.	.	.	.	.	.	.	.	.
=78	=78	=78	=78	=78	=78	=78	=78	=78	=78
8r	.	1r	.	1DMm	.	voice	.	174.738	D:7
8d	I	.	.	.	.	.	.	.	.
8d	leave	.	.	.	.	.	.	.	.
16d	it	.	.	.	.	.	.	.	.
16d	up	.	.	.	.	.	.	.	.
8c	_	.	.	.	.	.	.	.	.
16B-	to	.	.	.	.	.	.	.	.
[16c	you!	.	.	.	.	.	D	.	.
16c]	_	.	.	.	.	.	.	.	.
16B-	_	.	.	.	.	.	.	.	.
8r	.	.	.	.	.	.	.	.	.
=79	=79	=79	=79	=79	=79	=79	=79	=79	=79
8r	.	1r	.	1DMm	.	voice	.	177.072	D:7
[4.d	Oh!	.	.	.	.	.	.	.	.
8d]	_	.	.	.	.	.	.	.	.
16c	_	.	.	.	.	.	.	.	.
16B-	_	.	.	.	.	.	.	.	.
8r	.	.	.	.	.	.	.	.	.
16G	Uh!	.	.	.	.	.	.	.	.
16B-	_	.	.	.	.	.	.	.	.
=80	=80	=80	=80	=80	=80	=80	=80	=80	=80
*>Letter>D2	*>Letter>D2	*>Letter>D2	*>Letter>D2	*>Letter>D2	*>Letter>D2	*>Letter>D2	*>Letter>D2	*>Letter>D2	*>Letter>D2
*>Label>Chorus	*>Label>Chorus	*>Label>Chorus	*>Label>Chorus	*>Label>Chorus	*>Label>Chorus	*>Label>Chorus	*>Label>Chorus	*>Label>Chorus	*>Label>Chorus
8F	Do	1r	.	1Gm	newline	voice	.	179.407	G:1
8G	it	.	.	.	.	.	.	.	.
8B-q	_	.	.	.	.	.	.	.	.
8c	light,	.	.	.	.	.	B	.	.
8r	.	.	.	.	.	.	.	.	.
8r	.	.	.	.	.	.	.	.	.
[8B-	ta	.	.	.	.	.	(G	.	.
16B-]	_	.	.	.	.	.	.	.	.
16G	kin'	.	.	.	.	.	a)	.	.
8F	me	.	.	.	.	.	.	.	.
=81	=81	=81	=81	=81	=81	=81	=81	=81	=81
8D	through	1r	.	1Gm	.	voice	.	181.758	G:1
8G	the	.	.	.	.	.	.	.	.
8G	night.	.	.	.	.	.	B	.	.
8r	.	.	.	.	.	.	.	.	.
8r	.	.	.	.	.	.	.	.	.
8F	Sha-	.	.	.	.	.	.	.	.
8G	-dow	.	.	.	.	.	.	.	.
8B-	dan-	.	.	.	.	.	.	.	.
=82	=82	=82	=82	=82	=82	=82	=82	=82	=82
8Fq	_	.	.	.	.	.	.	.	.
8.G	-cing,	1r	.	1Gm	.	voice	a	184.108	G:1
16F	_	.	.	.	.	.	.	.	.
16D	_	.	.	.	.	.	.	.	.
16C	_	.	.	.	.	.	.	.	.
8BB-	_	.	.	.	.	.	.	.	.
8r	.	.	.	.	.	.	.	.	.
[8F	ba	.	.	.	.	.	G	.	.
16F]	_	.	.	.	.	.	.	.	.
16D	by,	.	.	.	.	.	.	.	.
8C	you	.	.	.	.	.	.	.	.
=83	=83	=83	=83	=83	=83	=83	=83	=83	=83
8BB-	do	1r	.	1Gm	.	voice	.	186.459	G:1
16C	it	.	.	.	.	.	.	.	.
16BB-	_	.	.	.	.	.	.	.	.
8D	right,	.	.	.	.	.	B	.	.
16C	_	.	.	.	.	.	.	.	.
16BB-	_	.	.	.	.	.	.	.	.
8r	.	.	.	.	.	.	.	.	.
8c	uh-	.	.	.	.	.	.	.	.
16c	-huh!	.	.	.	.	.	.	.	.
16B-	_	.	.	.	.	.	.	.	.
8G	_	.	.	.	.	.	.	.	.
=84	=84	=84	=84	=84	=84	=84	=84	=84	=84
8F	Give	1r	.	1Gm	newline	voice	.	188.81	G:1
8G	me	.	.	.	.	.	.	.	.
8B-q	_	.	.	.	.	.	.	.	.
4c	more!	.	.	.	.	.	E	.	.
8r	.	.	.	.	.	.	.	.	.
16d-Q	_	.	.	.	.	.	.	.	.
16cQ	_	.	.	.	.	.	.	.	.
[8B-	Drag	.	.	.	.	.	.	.	.
16B-]	_	.	.	.	.	.	.	.	.
16G	me	.	.	.	.	.	.	.	.
8F	a-	.	.	.	.	.	.	.	.
=85	=85	=85	=85	=85	=85	=85	=85	=85	=85
8D	-cross	1r	.	1Gm	.	voice	.	191.147	G:1
8G	the	.	.	.	.	.	.	.	.
8G	floor!	.	.	.	.	.	E	.	.
8r	.	.	.	.	.	.	.	.	.
8r	.	.	.	.	.	.	.	.	.
8F	Sha-	.	.	.	.	.	.	.	.
8G	-dow	.	.	.	.	.	.	.	.
8B-	dan-	.	.	.	.	.	.	.	.
=86	=86	=86	=86	=86	=86	=86	=86	=86	=86
8Fq	_	.	.	.	.	.	.	.	.
8.G	-cing,	1r	.	1Gm	.	voice	a	193.485	G:1
16F	_	.	.	.	.	.	.	.	.
16D	_	.	.	.	.	.	.	.	.
16C	_	.	.	.	.	.	.	.	.
8BB-	_	.	.	.	.	.	.	.	.
8r	.	.	.	.	.	.	.	.	.
[8F	all	.	.	.	.	.	.	.	.
16F]	_	.	.	.	.	.	.	.	.
16D	this	.	.	.	.	.	.	.	.
8C	and	.	.	.	.	.	.	.	.
=87	=87	=87	=87	=87	=87	=87	=87	=87	=87
8BB-	no-	1r	.	1Gm	.	voice	.	195.822	G:1
16C	-thin'	.	.	.	.	.	a	.	.
16BB-	_	.	.	.	.	.	.	.	.
8D	more!	.	.	.	.	.	E	.	.
16C	_	.	.	.	.	.	.	.	.
16BB-	_	.	.	.	.	.	.	.	.
2r	.	.	.	.	.	.	.	.	.
=88	=88	=88	=88	=88	=88	=88	=88	=88	=88
*>Letter>D	*>Letter>D	*>Letter>D	*>Letter>D	*>Letter>D	*>Letter>D	*>Letter>D	*>Letter>D	*>Letter>D	*>Letter>D
*>Label>Chorus	*>Label>Chorus	*>Label>Chorus	*>Label>Chorus	*>Label>Chorus	*>Label>Chorus	*>Label>Chorus	*>Label>Chorus	*>Label>Chorus	*>Label>Chorus
8F	Do	1r	.	1Gmm	newline	voice	.	198.16	G:min7
8G	it	.	.	.	.	.	.	.	.
8B-q	_	.	.	.	.	.	.	.	.
8c	light,	.	.	.	.	.	B	.	.
8r	.	.	.	.	.	.	.	.	.
8r	.	.	.	.	.	.	.	.	.
[8B-	ta	.	.	.	.	.	G	.	.
16B-]	_	.	.	.	.	.	.	.	.
16G	kin'	.	.	.	.	.	.	.	.
8F	me	.	.	.	.	.	.	.	.
=89	=89	=89	=89	=89	=89	=89	=89	=89	=89
8D	through	1r	.	1Gmm	.	voice	.	200.497	G:min7
8G	the	.	.	.	.	.	.	.	.
8G	night.	.	.	.	.	.	B	.	.
8r	.	.	.	.	.	.	.	.	.
8r	.	.	.	.	.	.	.	.	.
8F	Sha-	.	.	.	.	.	.	.	.
8G	-dow	.	.	.	.	.	.	.	.
8B-	dan-	.	.	.	.	.	.	.	.
=90	=90	=90	=90	=90	=90	=90	=90	=90	=90
8Fq	_	.	.	.	.	.	.	.	.
8.G	-cing,	1r	.	1Gmm	.	voice	a	202.835	G:min7
16F	_	.	.	.	.	.	.	.	.
16D	_	.	.	.	.	.	.	.	.
16C	_	.	.	.	.	.	.	.	.
8BB-	_	.	.	.	.	.	.	.	.
8r	.	.	.	.	.	.	.	.	.
[8F	ba	.	.	.	.	.	G	.	.
16F]	_	.	.	.	.	.	.	.	.
16D	by,	.	.	.	.	.	.	.	.
8C	you	.	.	.	.	.	.	.	.
=91	=91	=91	=91	=91	=91	=91	=91	=91	=91
8BB-	do	1r	.	1Gmm	.	voice	.	205.172	G:min7
16C	it	.	.	.	.	.	.	.	.
16BB-	_	.	.	.	.	.	.	.	.
8D	right,	.	.	.	.	.	B	.	.
16C	_	.	.	.	.	.	.	.	.
16BB-	_	.	.	.	.	.	.	.	.
8r	.	.	.	.	.	.	.	.	.
8c	uh-	.	.	.	.	.	.	.	.
16c	-huh!	.	.	.	.	.	.	.	.
16B-	_	.	.	.	.	.	.	.	.
8G	_	.	.	.	.	.	.	.	.
=92	=92	=92	=92	=92	=92	=92	=92	=92	=92
8F	Give	1r	.	1Gmm	newline	voice	.	207.509	G:min7
8G	me	.	.	.	.	.	.	.	.
8B-q	_	.	.	.	.	.	.	.	.
4c	more!	.	.	.	.	.	E	.	.
8r	.	.	.	.	.	.	.	.	.
16d-Q	_	.	.	.	.	.	.	.	.
16cQ	_	.	.	.	.	.	.	.	.
[8B-	Drag	.	.	.	.	.	.	.	.
16B-]	_	.	.	.	.	.	.	.	.
16G	me	.	.	.	.	.	.	.	.
8F	a-	.	.	.	.	.	.	.	.
=93	=93	=93	=93	=93	=93	=93	=93	=93	=93
8D	-cross	1r	.	1Gmm	.	voice	.	209.846	G:min7
8G	the	.	.	.	.	.	.	.	.
8G	floor!	.	.	.	.	.	E	.	.
8r	.	.	.	.	.	.	.	.	.
8r	.	.	.	.	.	.	.	.	.
8F	Sha-	.	.	.	.	.	.	.	.
8G	-dow	.	.	.	.	.	.	.	.
8B-	dan-	.	.	.	.	.	.	.	.
=94	=94	=94	=94	=94	=94	=94	=94	=94	=94
8Fq	_	.	.	.	.	.	.	.	.
8.G	-cing,	1r	.	1Gmm	.	voice	a	212.182	G:min7
16F	_	.	.	.	.	.	.	.	.
16D	_	.	.	.	.	.	.	.	.
16C	_	.	.	.	.	.	.	.	.
8BB-	_	.	.	.	.	.	.	.	.
8r	.	.	.	.	.	.	.	.	.
[8F	all	.	.	.	.	.	.	.	.
16F]	_	.	.	.	.	.	.	.	.
16D	this	.	.	.	.	.	.	.	.
8C	and	.	.	.	.	.	.	.	.
=95	=95	=95	=95	=95	=95	=95	=95	=95	=95
8BB-	no-	1r	.	1Gmm	.	voice	.	214.519	G:min7
16C	-thin'	.	.	.	.	.	a	.	.
16BB-	_	.	.	.	.	.	.	.	.
8D	more!	.	.	.	.	.	E	.	.
16C	_	.	.	.	.	.	.	.	.
16BB-	_	.	.	.	.	.	.	.	.
2r	.	.	.	.	.	.	.	.	.
=96	=96	=96	=96	=96	=96	=96	=96	=96	=96
*>Letter>D	*>Letter>D	*>Letter>D	*>Letter>D	*>Letter>D	*>Letter>D	*>Letter>D	*>Letter>D	*>Letter>D	*>Letter>D
*>Label>Chorus	*>Label>Chorus	*>Label>Chorus	*>Label>Chorus	*>Label>Chorus	*>Label>Chorus	*>Label>Chorus	*>Label>Chorus	*>Label>Chorus	*>Label>Chorus
8F	Do	1r	.	1Gmm	newline	voice	.	216.855	G:min7
8G	it	.	.	.	.	.	.	.	.
8B-q	_	.	.	.	.	.	.	.	.
8c	light,	.	.	.	.	.	B	.	.
8r	.	.	.	.	.	.	.	.	.
8r	.	.	.	.	.	.	.	.	.
[8B-	ta	.	.	.	.	.	(G	.	.
16B-]	_	.	.	.	.	.	.	.	.
16G	kin'	.	.	.	.	.	a)	.	.
8F	me	.	.	.	.	.	.	.	.
=97	=97	=97	=97	=97	=97	=97	=97	=97	=97
8D	through	1r	.	1Gmm	.	voice	.	219.195	G:min7
8G	the	.	.	.	.	.	.	.	.
8G	night.	.	.	.	.	.	B	.	.
8r	.	.	.	.	.	.	.	.	.
8r	.	.	.	.	.	.	.	.	.
8F	Sha-	.	.	.	.	.	.	.	.
8G	-dow	.	.	.	.	.	.	.	.
8B-	dan-	.	.	.	.	.	.	.	.
=98	=98	=98	=98	=98	=98	=98	=98	=98	=98
8Fq	_	.	.	.	.	.	.	.	.
8.G	-cing,	1r	.	1Gmm	.	voice	a	221.535	G:min7
16F	_	.	.	.	.	.	.	.	.
16D	_	.	.	.	.	.	.	.	.
16C	_	.	.	.	.	.	.	.	.
8BB-	_	.	.	.	.	.	.	.	.
8r	.	.	.	.	.	.	.	.	.
[8F	ba	.	.	.	.	.	G	.	.
16F]	_	.	.	.	.	.	.	.	.
16D	by,	.	.	.	.	.	.	.	.
8C	you	.	.	.	.	.	.	.	.
=99	=99	=99	=99	=99	=99	=99	=99	=99	=99
8BB-	do	1r	.	1Gmm	.	voice	.	223.875	G:min7
16C	it	.	.	.	.	.	.	.	.
16BB-	_	.	.	.	.	.	.	.	.
8D	right,	.	.	.	.	.	B	.	.
16C	_	.	.	.	.	.	.	.	.
16BB-	_	.	.	.	.	.	.	.	.
16r	.	.	.	.	.	.	.	.	.
8.c	Uh-	.	.	.	.	.	.	.	.
8c	-huh!	.	.	.	.	.	.	.	.
16B-	_	.	.	.	.	.	.	.	.
16G	_	.	.	.	.	.	.	.	.
=100	=100	=100	=100	=100	=100	=100	=100	=100	=100
8F	Give	1r	.	1Gmm	newline	voice	.	226.215	G:min7
8G	me	.	.	.	.	.	.	.	.
8B-q	_	.	.	.	.	.	.	.	.
4c	more!	.	.	.	.	.	E	.	.
8r	.	.	.	.	.	.	.	.	.
16d-Q	_	.	.	.	.	.	.	.	.
16cQ	_	.	.	.	.	.	.	.	.
[8B-	Drag	.	.	.	.	.	.	.	.
16B-]	_	.	.	.	.	.	.	.	.
16G	me	.	.	.	.	.	.	.	.
8F	a-	.	.	.	.	.	.	.	.
=101	=101	=101	=101	=101	=101	=101	=101	=101	=101
8D	-cross	1r	.	1Gmm	.	voice	.	228.537	G:min7
8G	the	.	.	.	.	.	.	.	.
8G	floor!	.	.	.	.	.	E	.	.
8r	.	.	.	.	.	.	.	.	.
8r	.	.	.	.	.	.	.	.	.
8F	Sha-	.	.	.	.	.	.	.	.
8G	-dow	.	.	.	.	.	.	.	.
8B-	dan-	.	.	.	.	.	.	.	.
=102	=102	=102	=102	=102	=102	=102	=102	=102	=102
8Fq	_	.	.	.	.	.	.	.	.
8.G	-cing,	1r	.	1Gmm	.	voice	a	230.859	G:min7
16F	_	.	.	.	.	.	.	.	.
16D	_	.	.	.	.	.	.	.	.
16C	_	.	.	.	.	.	.	.	.
8BB-	_	.	.	.	.	.	.	.	.
8r	.	.	.	.	.	.	.	.	.
[8F	all	.	.	.	.	.	.	.	.
16F]	_	.	.	.	.	.	.	.	.
16D	this	.	.	.	.	.	.	.	.
8C	and	.	.	.	.	.	.	.	.
=103	=103	=103	=103	=103	=103	=103	=103	=103	=103
8BB-	no-	1r	.	1Gmm	.	voice	.	233.18	G:min7
16C	-thin'	.	.	.	.	.	a	.	.
16BB-	_	.	.	.	.	.	.	.	.
8D	more!	.	.	.	.	.	E	.	.
16C	_	.	.	.	.	.	.	.	.
16BB-	_	.	.	.	.	.	.	.	.
2r	.	.	.	.	.	.	.	.	.
=104	=104	=104	=104	=104	=104	=104	=104	=104	=104
*>Letter>D	*>Letter>D	*>Letter>D	*>Letter>D	*>Letter>D	*>Letter>D	*>Letter>D	*>Letter>D	*>Letter>D	*>Letter>D
*>Label>Chorus	*>Label>Chorus	*>Label>Chorus	*>Label>Chorus	*>Label>Chorus	*>Label>Chorus	*>Label>Chorus	*>Label>Chorus	*>Label>Chorus	*>Label>Chorus
8F	Do	1r	.	1Gmm	newline	voice	.	235.502	G:min7
8G	it	.	.	.	.	.	.	.	.
8B-q	_	.	.	.	.	.	.	.	.
8c	light,	.	.	.	.	.	B	.	.
8r	.	.	.	.	.	.	.	.	.
8r	.	.	.	.	.	.	.	.	.
[8B-	ta	.	.	.	.	.	(G	.	.
16B-]	_	.	.	.	.	.	.	.	.
16G	kin'	.	.	.	.	.	a)	.	.
8F	me	.	.	.	.	.	.	.	.
=105	=105	=105	=105	=105	=105	=105	=105	=105	=105
8D	through	1r	.	1Gmm	.	voice	.	237.836	G:min7
8G	the	.	.	.	.	.	.	.	.
8G	night.	.	.	.	.	.	B	.	.
8r	.	.	.	.	.	.	.	.	.
8r	.	.	.	.	.	.	.	.	.
8F	Sha-	.	.	.	.	.	.	.	.
8G	-dow	.	.	.	.	.	.	.	.
8B-	dan-	.	.	.	.	.	.	.	.
=106	=106	=106	=106	=106	=106	=106	=106	=106	=106
8Fq	_	.	.	.	.	.	.	.	.
8.G	-cing,	1r	.	1Gmm	.	voice	a	240.169	G:min7
16F	_	.	.	.	.	.	.	.	.
16D	_	.	.	.	.	.	.	.	.
16C	_	.	.	.	.	.	.	.	.
8BB-	_	.	.	.	.	.	.	.	.
8r	.	.	.	.	.	.	.	.	.
[8F	ba	.	.	.	.	.	G	.	.
16F]	_	.	.	.	.	.	.	.	.
16D	by,	.	.	.	.	.	.	.	.
8C	you	.	.	.	.	.	.	.	.
=107	=107	=107	=107	=107	=107	=107	=107	=107	=107
8BB-	do	1r	.	1Gmm	.	voice	.	242.503	G:min7
16C	it	.	.	.	.	.	.	.	.
16BB-	_	.	.	.	.	.	.	.	.
8D	right,	.	.	.	.	.	B	.	.
16C	_	.	.	.	.	.	.	.	.
16BB-	_	.	.	.	.	.	.	.	.
8r	.	.	.	.	.	.	.	.	.
8c	uh-	.	.	.	.	.	.	.	.
16c	-huh!	.	.	.	.	.	.	.	.
16B-	_	.	.	.	.	.	.	.	.
8G	_	.	.	.	.	.	.	.	.
=108	=108	=108	=108	=108	=108	=108	=108	=108	=108
8F	Give	1r	.	1Gmm	newline	voice	.	244.837	G:min7
8G	me	.	.	.	.	.	.	.	.
8B-q	_	.	.	.	.	.	.	.	.
4c	more!	.	.	.	.	.	E	.	.
8r	.	.	.	.	.	.	.	.	.
16d-Q	_	.	.	.	.	.	.	.	.
16cQ	_	.	.	.	.	.	.	.	.
[8B-	Drag	.	.	.	.	.	.	.	.
16B-]	_	.	.	.	.	.	.	.	.
16G	me	.	.	.	.	.	.	.	.
8F	a-	.	.	.	.	.	.	.	.
=109	=109	=109	=109	=109	=109	=109	=109	=109	=109
8D	-cross	1r	.	1Gmm	.	voice	.	247.187	G:min7
8G	the	.	.	.	.	.	.	.	.
8G	floor!	.	.	.	.	.	E	.	.
8r	.	.	.	.	.	.	.	.	.
8r	.	.	.	.	.	.	.	.	.
8F	Sha-	.	.	.	.	.	.	.	.
8G	-dow	.	.	.	.	.	.	.	.
8B-	dan-	.	.	.	.	.	.	.	.
=110	=110	=110	=110	=110	=110	=110	=110	=110	=110
8Fq	_	.	.	.	.	.	.	.	.
8.G	-cing,	1r	.	1Gmm	.	voice	a	249.536	G:min7
16F	_	.	.	.	.	.	.	.	.
16D	_	.	.	.	.	.	.	.	.
16C	_	.	.	.	.	.	.	.	.
8BB-	_	.	.	.	.	.	.	.	.
8r	.	.	.	.	.	.	.	.	.
[8F	all	.	.	.	.	.	.	.	.
16F]	_	.	.	.	.	.	.	.	.
16D	this	.	.	.	.	.	.	.	.
8C	and	.	.	.	.	.	.	.	.
=111	=111	=111	=111	=111	=111	=111	=111	=111	=111
8BB-	no-	1r	.	1Gmm	.	voice	.	251.886	G:min7
16C	-thin'	.	.	.	.	.	a	.	.
16BB-	_	.	.	.	.	.	.	.	.
8D	more!	.	.	.	.	.	E	.	.
16C	_	.	.	.	.	.	.	.	.
16BB-	_	.	.	.	.	.	.	.	.
2r	.	.	.	.	.	.	.	.	.
=112	=112	=112	=112	=112	=112	=112	=112	=112	=112
*>Letter>D	*>Letter>D	*>Letter>D	*>Letter>D	*>Letter>D	*>Letter>D	*>Letter>D	*>Letter>D	*>Letter>D	*>Letter>D
*>Label>Fadeout	*>Label>Fadeout	*>Label>Fadeout	*>Label>Fadeout	*>Label>Fadeout	*>Label>Fadeout	*>Label>Fadeout	*>Label>Fadeout	*>Label>Fadeout	*>Label>Fadeout
8F	Do	1r	.	1Gmm	newline	voice	.	254.235	G:min7
8G	it	.	.	.	.	.	.	.	.
8B-q	_	.	.	.	.	.	.	.	.
8c	light,	.	.	.	.	.	B	.	.
8r	.	.	.	.	.	.	.	.	.
8r	.	.	.	.	.	.	.	.	.
[8B-	ta	.	.	.	.	.	(G	.	.
16B-]	_	.	.	.	.	.	.	.	.
16G	kin'	.	.	.	.	.	a)	.	.
8F	me	.	.	.	.	.	.	.	.
=113	=113	=113	=113	=113	=113	=113	=113	=113	=113
8D	through	1r	.	1Gmm	.	voice	.	256.587	G:min7
8G	the	.	.	.	.	.	.	.	.
8G	night.	.	.	.	.	.	B	.	.
8r	.	.	.	.	.	.	.	.	.
8r	.	.	.	.	.	.	.	.	.
8F	Sha-	.	.	.	.	.	.	.	.
8G	-dow	.	.	.	.	.	.	.	.
8B-	dan-	.	.	.	.	.	.	.	.
=114	=114	=114	=114	=114	=114	=114	=114	=114	=114
8Fq	_	.	.	.	.	.	.	.	.
8.G	-cing,	1r	.	1Gmm	.	voice	a	258.938	G:min7
16F	_	.	.	.	.	.	.	.	.
16D	_	.	.	.	.	.	.	.	.
16C	_	.	.	.	.	.	.	.	.
8BB-	_	.	.	.	.	.	.	.	.
8r	.	.	.	.	.	.	.	.	.
[8F	ba	.	.	.	.	.	G	.	.
16F]	_	.	.	.	.	.	.	.	.
16D	by,	.	.	.	.	.	.	.	.
8C	you	.	.	.	.	.	.	.	.
=115	=115	=115	=115	=115	=115	=115	=115	=115	=115
8BB-	do	1r	.	1Gmm	.	voice	.	261.29	G:min7
16C	it	.	.	.	.	.	.	.	.
16BB-	_	.	.	.	.	.	.	.	.
8D	right,	.	.	.	.	.	B	.	.
16C	_	.	.	.	.	.	.	.	.
16BB-	_	.	.	.	.	.	.	.	.
8r	.	.	.	.	.	.	.	.	.
8c	uh-	.	.	.	.	.	.	.	.
16c	-huh!	.	.	.	.	.	.	.	.
16B-	_	.	.	.	.	.	.	.	.
8G	_	.	.	.	.	.	.	.	.
=116	=116	=116	=116	=116	=116	=116	=116	=116	=116
8F	Give	1r	.	1Gmm	newline	voice	.	263.642	G:min7
8G	me	.	.	.	.	.	.	.	.
8B-q	_	.	.	.	.	.	.	.	.
4c	more!	.	.	.	.	.	E	.	.
8r	.	.	.	.	.	.	.	.	.
16d-Q	_	.	.	.	.	.	.	.	.
16cQ	_	.	.	.	.	.	.	.	.
[8B-	Drag	.	.	.	.	.	.	.	.
16B-]	_	.	.	.	.	.	.	.	.
16G	me	.	.	.	.	.	.	.	.
8F	a-	.	.	.	.	.	.	.	.
=117	=117	=117	=117	=117	=117	=117	=117	=117	=117
8D	-cross	1r	.	1Gmm	.	voice	.	265.713	G:min7
8G	the	.	.	.	.	.	.	.	.
8G	floor!	.	.	.	.	.	E	.	.
8r	.	.	.	.	.	.	.	.	.
8r	.	.	.	.	.	.	.	.	.
8F	Sha-	.	.	.	.	.	.	.	.
8G	-dow	.	.	.	.	.	.	.	.
8B-	dan-	.	.	.	.	.	.	.	.
=118	=118	=118	=118	=118	=118	=118	=118	=118	=118
8Fq	_	.	.	.	.	.	.	.	.
8.G	-cing,	1r	.	1Gmm	.	voice	a	267.785	G:min7
16F	_	.	.	.	.	.	.	.	.
16D	_	.	.	.	.	.	.	.	.
16C	_	.	.	.	.	.	.	.	.
8BB-	_	.	.	.	.	.	.	.	.
8r	.	.	.	.	.	.	.	.	.
[8F	all	.	.	.	.	.	.	.	.
16F]	_	.	.	.	.	.	.	.	.
16D	this	.	.	.	.	.	.	.	.
8C	and	.	.	.	.	.	.	.	.
=119	=119	=119	=119	=119	=119	=119	=119	=119	=119
8BB-	no-	1r	.	1Gmm	.	voice	.	269.857	G:min7
16C	-thin'	.	.	.	.	.	a	.	.
16BB-	_	.	.	.	.	.	.	.	.
8D	more!	.	.	.	.	.	E	.	.
16C	_	.	.	.	.	.	.	.	.
16BB-	_	.	.	.	.	.	.	.	.
2r	.	.	.	.	.	.	.	.	.
r;	.	r;	.	1r;	.	r	.	271.929	N.C.
r;	.	r;	.	1r;	.	r	.	273.711	N.C.
*-	*-	*-	*-	*-	*-	*-	*-	*-	*-
!!!BillboardChartDate: 1978/09/30, 1978/09/02
!!!BillboardPeak: 1, 1
!!!BillboardWeeksOnChart: 25, 25
!!!COC: Andy Gibb
!!!ENC: Nathaniel Condit-Schultz
!!!EST: Awating manual error checking and editing.
!!!OTL: Shadow Dancing
!!!RDF**chordsym: original McGill chord annotation + (implied pitch class set, with bass pitch in first position)
!!!RDF**harmony: **recip + pitch class of root + harmonic quality
!!!RDF**leadinstrument: original McGill primary instrumentation annotation
!!!RDF**phrase: newline = linebreak in original McGill transcription
!!!RDF**timestamp: McGill audio timestamp in seconds
!!!RDT: 2017/01/12/
!!!SampleActualRank: 96, 50
!!!SampleID#: 193, 737
!!!SampleTargetRank: 96, 52
